assets/static/img/logo-osx.svg

<?xml version="1.0" encoding="UTF-8" standalone="no"?>
<svg width="247px" height="302px" viewBox="0 0 247 302" version="1.1" xmlns="http://www.w3.org/2000/svg" xmlns:xlink="http://www.w3.org/1999/xlink" xmlns:sketch="http://www.bohemiancoding.com/sketch/ns">
    <!-- Generator: Sketch 3.0.2 (7799) - http://www.bohemiancoding.com/sketch -->
    <title>Untitled 2</title>
    <description>Created with Sketch.</description>
    <defs></defs>
    <g id="Page-1" stroke="none" stroke-width="1" fill="none" fill-rule="evenodd" sketch:type="MSPage">
        <g id="apple-logo" sketch:type="MSLayerGroup" transform="translate(1.000000, 1.000000)" stroke-width="0.5">
            <path d="M236.823163,101.561866 L236.914695,101.622718 L236.914695,101.926978 L236.914695,102.231237 L236.823163,102.292089 L236.762142,102.383367 L231.331258,106.43002 C227.731009,109.107505 224.557908,111.866126 221.811955,114.705882 C219.066002,117.545639 216.625156,120.638945 214.489415,123.985801 C212.353674,127.332657 210.624741,130.679513 209.302615,134.026369 C207.98049,137.373225 206.96347,140.770791 206.251557,144.219067 C205.539643,147.667343 205.183686,152.434077 205.183686,158.51927 C205.183686,164.604462 205.590494,169.574037 206.40411,173.427992 C207.217725,177.281947 208.387298,181.034483 209.912827,184.685598 C211.438356,188.336714 213.268991,191.78499 215.404732,195.030426 C217.540473,198.275862 219.777916,201.115619 222.117061,203.549696 C224.456206,205.983773 226.876712,208.235294 229.37858,210.30426 C231.860108,212.393509 234.728103,214.401623 237.982565,216.3286 C241.237028,218.255578 243.016812,219.269777 243.321918,219.371197 L243.779577,219.523327 L244.084682,219.675456 L244.389788,219.827586 L244.694894,219.918864 L245,219.979716 L245,220.283976 L245,220.588235 L240.972603,230.628803 C238.267331,237.322515 235.460357,243.326572 232.551681,248.640974 C229.663346,253.975659 226.286841,259.432049 222.422167,265.010142 C218.557493,270.588235 215.079286,275.233266 211.987547,278.945233 C208.875467,282.636917 206.027812,285.679513 203.444583,288.073022 C200.841013,290.446247 198.166252,292.444219 195.420299,294.066937 C192.674346,295.689655 189.928394,296.906694 187.182441,297.718053 C184.436488,298.529412 182.656704,298.985801 181.843088,299.087221 L180.622665,299.239351 L180.317559,299.330629 L180.012453,299.391481 L177.571606,299.330629 C175.944375,299.269777 173.503528,298.935091 170.249066,298.326572 C166.994604,297.718053 162.062059,296.247465 155.451432,293.914807 C148.840805,291.58215 143.654006,290.010142 139.891034,289.198783 C136.128061,288.387424 132.263387,287.981744 128.297011,287.981744 C124.330635,287.981744 120.771067,288.286004 117.618306,288.894523 C114.465546,289.503043 109.888958,290.872211 103.888543,293.002028 C97.8881279,295.131846 93.0064342,296.703854 89.243462,297.718053 L83.5990037,299.239351 L82.3785803,299.391481 L81.1581569,299.543611 L81.1581569,299.634888 L81.1581569,299.69574 L78.1070984,299.69574 L75.0560399,299.69574 L75.0560399,299.634888 L75.0560399,299.543611 L73.9881694,299.391481 L72.9202989,299.239351 L72.3100872,299.087221 C71.9032794,298.985801 71.1913657,298.782961 70.1743462,298.478702 C69.1573267,298.174442 67.3775425,297.413793 64.8349938,296.196755 C62.292445,294.979716 59.5464923,293.204868 56.5971357,290.872211 C53.6477792,288.539554 50.9018265,286.004057 48.3592777,283.26572 C45.8167289,280.527383 42.430054,276.348884 38.1992528,270.730223 C33.988792,265.091278 30.388543,259.858012 27.3985056,255.030426 C24.3881279,250.223124 21.4794521,244.908722 18.6724782,239.087221 C15.8858447,233.245436 13.3229556,227.079108 10.9838107,220.588235 C8.64466584,214.097363 6.66147779,207.505071 5.03424658,200.811359 C3.40701536,194.117647 2.15608136,187.221095 1.28144458,180.121704 L0,169.472617 L0,162.626775 L0,155.780933 L0.0610211706,155.780933 L0.152552927,155.780933 L1.06787049,147.870183 C1.67808219,142.596349 2.59339975,137.626775 3.81382316,132.96146 C5.03424658,128.296146 6.50892487,123.985801 8.23785803,120.030426 C9.9667912,116.075051 11.9499792,112.271805 14.1874222,108.62069 C16.4248651,104.969574 18.6928186,101.805274 20.9912827,99.127789 C23.2694064,96.4300203 25.6797426,93.9148073 28.2222914,91.5821501 C30.7648402,89.2494929 33.9684516,86.8661258 37.8331258,84.4320487 C41.6977999,81.9979716 45.613325,79.969574 49.5797011,78.346856 C53.5460772,76.7241379 57.5124533,75.5070994 61.4788294,74.6957404 C65.4452055,73.8843813 69.7675384,73.4787018 74.4458281,73.4787018 C79.1241179,73.4787018 83.9041096,74.0872211 88.7858032,75.3042596 C93.6674969,76.5212982 99.8204649,78.4482759 107.244707,81.0851927 C114.66895,83.7221095 119.042134,85.1926978 120.364259,85.4969574 C121.686384,85.801217 123.262765,85.9026369 125.0934,85.801217 C126.924035,85.6997972 133.077003,83.8742394 143.552304,80.3245436 C154.027605,76.7748479 161.299294,74.5943205 165.367372,73.7829615 C169.43545,72.9716024 173.757783,72.5659229 178.334371,72.5659229 C182.910959,72.5659229 187.741802,73.0730223 192.826899,74.0872211 C197.911997,75.1014199 202.285181,76.3184584 205.946451,77.7383367 C209.607721,79.158215 213.045247,80.811359 216.259029,82.6977688 C219.45247,84.5638945 222.422167,86.663286 225.16812,88.9959432 C227.914072,91.3286004 230.40577,93.8133874 232.643213,96.4503043 C234.880656,99.0872211 236.13159,100.588235 236.396015,100.953347 C236.6401,101.298174 236.782482,101.501014 236.823163,101.561866 L236.823163,101.561866 Z" id="Shape" stroke="#221E20" fill="#221E20" sketch:type="MSShapeGroup"></path>
            <path d="M0,77.8904665 L0,0 L90.1587796,0 L180.317559,0 L180.317559,0.060851927 C180.317559,0.121703854 179.147987,0.354969574 176.808842,0.760649087 C174.469697,1.1663286 171.418638,2.02839757 167.655666,3.34685598 C163.892694,4.6653144 160.333126,6.23732252 156.976961,8.06288032 C153.620797,9.88843813 150.468037,11.9168357 147.51868,14.148073 C144.569323,16.3793103 141.925073,18.8133874 139.585928,21.4503043 C137.246783,24.0872211 135.060191,26.8762677 133.026152,29.8174442 C130.992113,32.7586207 129.181818,35.8823529 127.595268,39.188641 C126.029058,42.474645 124.788294,45.9432049 123.872976,49.5943205 C122.957659,53.2454361 122.428809,57.4036511 122.286426,62.0689655 L122.042341,69.0669371 L127.076588,69.0060852 C130.432752,68.9452333 133.941469,68.4584178 137.60274,67.5456389 C141.26401,66.63286 144.599834,65.3955375 147.610212,63.8336714 C150.600249,62.2515213 153.590286,60.2636917 156.580324,57.8701826 C159.590702,55.4969574 162.336654,52.9208925 164.818182,50.1419878 C167.32005,47.3427992 169.689705,44.168357 171.927148,40.6186613 C174.164591,37.0689655 175.995226,33.6206897 177.419054,30.2738337 C178.842881,26.9269777 179.961602,23.5801217 180.775218,20.2332657 C181.588834,16.8864097 182.097343,13.2352941 182.300747,9.27991886 C182.504151,5.32454361 182.575342,2.78904665 182.514321,1.67342799 L182.4533,0 L213.72665,0 L245,0 L245,109.989858 L245,219.979716 L244.694894,219.918864 L244.389788,219.827586 L244.084682,219.675456 L243.779577,219.523327 L243.321918,219.371197 C243.016812,219.269777 241.237028,218.255578 237.982565,216.3286 C234.728103,214.401623 231.860108,212.393509 229.37858,210.30426 C226.876712,208.235294 224.456206,205.983773 222.117061,203.549696 C219.777916,201.115619 217.540473,198.275862 215.404732,195.030426 C213.268991,191.78499 211.438356,188.336714 209.912827,184.685598 C208.387298,181.034483 207.217725,177.281947 206.40411,173.427992 C205.590494,169.574037 205.183686,164.604462 205.183686,158.51927 C205.183686,152.434077 205.539643,147.667343 206.251557,144.219067 C206.96347,140.770791 207.98049,137.373225 209.302615,134.026369 C210.624741,130.679513 212.353674,127.332657 214.489415,123.985801 C216.625156,120.638945 219.066002,117.545639 221.811955,114.705882 C224.557908,111.866126 227.731009,109.107505 231.331258,106.43002 L236.762142,102.383367 L236.823163,102.292089 L236.914695,102.231237 L236.914695,101.926978 L236.914695,101.622718 L236.823163,101.561866 C236.782482,101.501014 236.6401,101.298174 236.396015,100.953347 C236.13159,100.588235 234.880656,99.0872211 232.643213,96.4503043 C230.40577,93.8133874 227.914072,91.3286004 225.16812,88.9959432 C222.422167,86.663286 219.45247,84.5638945 216.259029,82.6977688 C213.045247,80.811359 209.607721,79.158215 205.946451,77.7383367 C202.285181,76.3184584 197.911997,75.1014199 192.826899,74.0872211 C187.741802,73.0730223 182.910959,72.5659229 178.334371,72.5659229 C173.757783,72.5659229 169.43545,72.9716024 165.367372,73.7829615 C161.299294,74.5943205 154.027605,76.7748479 143.552304,80.3245436 C133.077003,83.8742394 126.924035,85.6997972 125.0934,85.801217 C123.262765,85.9026369 121.686384,85.801217 120.364259,85.4969574 C119.042134,85.1926978 114.66895,83.7221095 107.244707,81.0851927 C99.8204649,78.4482759 93.6674969,76.5212982 88.7858032,75.3042596 C83.9041096,74.0872211 79.1241179,73.4787018 74.4458281,73.4787018 C69.7675384,73.4787018 65.4452055,73.8843813 61.4788294,74.6957404 C57.5124533,75.5070994 53.5460772,76.7241379 49.5797011,78.346856 C45.613325,79.969574 41.6977999,81.9979716 37.8331258,84.4320487 C33.9684516,86.8661258 30.7648402,89.2494929 28.2222914,91.5821501 C25.6797426,93.9148073 23.2694064,96.4300203 20.9912827,99.127789 C18.6928186,101.805274 16.4248651,104.969574 14.1874222,108.62069 C11.9499792,112.271805 9.9667912,116.075051 8.23785803,120.030426 C6.50892487,123.985801 5.03424658,128.296146 3.81382316,132.96146 C2.59339975,137.626775 1.67808219,142.596349 1.06787049,147.870183 L0.152552927,155.780933 L0.0610211706,155.780933 L0,155.780933 L0,77.8904665 L0,77.8904665 Z" id="Shape" stroke="#FFFFFF" fill="#FFFFFF" sketch:type="MSShapeGroup"></path>
            <path d="M0,234.584178 L0,169.472617 L1.28144458,180.121704 C2.15608136,187.221095 3.40701536,194.117647 5.03424658,200.811359 C6.66147779,207.505071 8.64466584,214.097363 10.9838107,220.588235 C13.3229556,227.079108 15.8858447,233.245436 18.6724782,239.087221 C21.4794521,244.908722 24.3881279,250.223124 27.3985056,255.030426 C30.388543,259.858012 33.988792,265.091278 38.1992528,270.730223 C42.430054,276.348884 45.8167289,280.527383 48.3592777,283.26572 C50.9018265,286.004057 53.6477792,288.539554 56.5971357,290.872211 C59.5464923,293.204868 62.292445,294.979716 64.8349938,296.196755 C67.3775425,297.413793 69.1573267,298.174442 70.1743462,298.478702 C71.1913657,298.782961 71.9032794,298.985801 72.3100872,299.087221 L72.9202989,299.239351 L73.9881694,299.391481 L75.0560399,299.543611 L75.0560399,299.634888 L75.0560399,299.69574 L37.5280199,299.69574 L0,299.69574 L0,234.584178 L0,234.584178 Z" id="Shape" stroke="#FFFFFF" fill="#FFFFFF" sketch:type="MSShapeGroup"></path>
            <path d="M180.317559,0.060851927 L180.317559,0 L181.38543,0 L182.4533,0 L182.514321,1.67342799 C182.575342,2.78904665 182.504151,5.32454361 182.300747,9.27991886 C182.097343,13.2352941 181.588834,16.8864097 180.775218,20.2332657 C179.961602,23.5801217 178.842881,26.9269777 177.419054,30.2738337 C175.995226,33.6206897 174.164591,37.0689655 171.927148,40.6186613 C169.689705,44.168357 167.32005,47.3427992 164.818182,50.1419878 C162.336654,52.9208925 159.590702,55.4969574 156.580324,57.8701826 C153.590286,60.2636917 150.600249,62.2515213 147.610212,63.8336714 C144.599834,65.3955375 141.26401,66.63286 137.60274,67.5456389 C133.941469,68.4584178 130.432752,68.9452333 127.076588,69.0060852 L122.042341,69.0669371 L122.286426,62.0689655 C122.428809,57.4036511 122.957659,53.2454361 123.872976,49.5943205 C124.788294,45.9432049 126.029058,42.474645 127.595268,39.188641 C129.181818,35.8823529 130.992113,32.7586207 133.026152,29.8174442 C135.060191,26.8762677 137.246783,24.0872211 139.585928,21.4503043 C141.925073,18.8133874 144.569323,16.3793103 147.51868,14.148073 C150.468037,11.9168357 153.620797,9.88843813 156.976961,8.06288032 C160.333126,6.23732252 163.892694,4.6653144 167.655666,3.34685598 C171.418638,2.02839757 174.469697,1.1663286 176.808842,0.760649087 C179.147987,0.354969574 180.317559,0.121703854 180.317559,0.060851927 L180.317559,0.060851927 Z" id="Shape" stroke="#221E20" fill="#221E20" sketch:type="MSShapeGroup"></path>
            <path d="M240.972603,230.628803 L245,220.588235 L245,260.141988 L245,299.69574 L212.506227,299.69574 L180.012453,299.69574 L180.012453,299.543611 L180.012453,299.391481 L180.317559,299.330629 L180.622665,299.239351 L181.843088,299.087221 C182.656704,298.985801 184.436488,298.529412 187.182441,297.718053 C189.928394,296.906694 192.674346,295.689655 195.420299,294.066937 C198.166252,292.444219 200.841013,290.446247 203.444583,288.073022 C206.027812,285.679513 208.875467,282.636917 211.987547,278.945233 C215.079286,275.233266 218.557493,270.588235 222.422167,265.010142 C226.286841,259.432049 229.663346,253.975659 232.551681,248.640974 C235.460357,243.326572 238.267331,237.322515 240.972603,230.628803 L240.972603,230.628803 Z" id="Shape" stroke="#FFFFFF" fill="#FFFFFF" sketch:type="MSShapeGroup"></path>
            <path d="M177.571606,299.330629 L180.012453,299.391481 L180.012453,299.543611 L180.012453,299.69574 L130.585305,299.69574 L81.1581569,299.69574 L81.1581569,299.634888 L81.1581569,299.543611 L82.3785803,299.391481 L83.5990037,299.239351 L89.243462,297.718053 C93.0064342,296.703854 97.8881279,295.131846 103.888543,293.002028 C109.888958,290.872211 114.465546,289.503043 117.618306,288.894523 C120.771067,288.286004 124.330635,287.981744 128.297011,287.981744 C132.263387,287.981744 136.128061,288.387424 139.891034,289.198783 C143.654006,290.010142 148.840805,291.58215 155.451432,293.914807 C162.062059,296.247465 166.994604,297.718053 170.249066,298.326572 C173.503528,298.935091 175.944375,299.269777 177.571606,299.330629 L177.571606,299.330629 Z" id="Shape" stroke="#FEFEFE" fill="#FEFEFE" sketch:type="MSShapeGroup"></path>
        </g>
    </g>
</svg>

<svg width="247" height="302" xmlns="http://www.w3.org/2000/svg" xmlns:sketch="http://www.bohemiancoding.com/sketch/ns"><title>Untitled 2</title><g sketch:type="MSLayerGroup" fill="none"><path d="M236.823 101.562l.092.061v.608l-.092.061-.061.091-5.431 4.047c-3.6 2.677-6.773 5.436-9.519 8.276-2.746 2.84-5.187 5.933-7.323 9.28-2.136 3.347-3.865 6.694-5.187 10.041-1.322 3.347-2.339 6.744-3.051 10.193-.712 3.448-1.068 8.215-1.068 14.3 0 6.085.407 11.055 1.22 14.909.814 3.854 1.983 7.606 3.509 11.258 1.526 3.651 3.356 7.099 5.492 10.345 2.136 3.245 4.373 6.085 6.712 8.519 2.339 2.434 4.76 4.686 7.262 6.755 2.482 2.089 5.35 4.097 8.604 6.024 3.254 1.927 5.034 2.941 5.339 3.043l.458.152.305.152.305.152.305.091.305.061v.608l-4.027 10.041c-2.705 6.694-5.512 12.698-8.421 18.012-2.888 5.335-6.265 10.791-10.13 16.369-3.865 5.578-7.343 10.223-10.435 13.935-3.112 3.692-5.96 6.734-8.543 9.128-2.604 2.373-5.278 4.371-8.024 5.994-2.746 1.623-5.492 2.84-8.238 3.651-2.746.811-4.526 1.268-5.339 1.369l-1.22.152-.305.091-.305.061-2.441-.061c-1.627-.061-4.068-.396-7.323-1.004-3.254-.609-8.187-2.079-14.798-4.412-6.611-2.333-11.797-3.905-15.56-4.716-3.763-.811-7.628-1.217-11.594-1.217-3.966 0-7.526.304-10.679.913-3.153.609-7.729 1.978-13.73 4.108-6 2.13-10.882 3.702-14.645 4.716l-5.644 1.521-1.22.152-1.22.152v.152h-6.102v-.152l-1.068-.152-1.068-.152-.61-.152c-.407-.101-1.119-.304-2.136-.609-1.017-.304-2.797-1.065-5.339-2.282-2.543-1.217-5.289-2.992-8.238-5.325s-5.695-4.868-8.238-7.606c-2.543-2.738-5.929-6.917-10.16-12.535-4.21-5.639-7.811-10.872-10.801-15.7-3.01-4.807-5.919-10.122-8.726-15.943-2.787-5.842-5.35-12.008-7.689-18.499-2.339-6.491-4.322-13.083-5.95-19.777-1.627-6.694-2.878-13.59-3.753-20.69l-1.281-10.649v-13.692h.153l.915-7.911c.61-5.274 1.526-10.243 2.746-14.909 1.22-4.665 2.695-8.976 4.424-12.931 1.729-3.955 3.712-7.759 5.95-11.41 2.237-3.651 4.505-6.815 6.804-9.493 2.278-2.698 4.688-5.213 7.231-7.546s5.746-4.716 9.611-7.15 7.78-4.462 11.747-6.085c3.966-1.623 7.933-2.84 11.899-3.651 3.966-.811 8.289-1.217 12.967-1.217 4.678 0 9.458.609 14.34 1.826s11.035 3.144 18.459 5.781c7.424 2.637 11.797 4.108 13.12 4.412 1.322.304 2.899.406 4.729.304 1.831-.101 7.984-1.927 18.459-5.477 10.475-3.55 17.747-5.73 21.815-6.542 4.068-.811 8.39-1.217 12.967-1.217s9.407.507 14.493 1.521c5.085 1.014 9.458 2.231 13.12 3.651 3.661 1.42 7.099 3.073 10.313 4.959 3.193 1.866 6.163 3.966 8.909 6.298 2.746 2.333 5.238 4.817 7.475 7.454 2.237 2.637 3.488 4.138 3.753 4.503l.427.609z" id="Shape" stroke="#221E20" fill="#221E20" sketch:type="MSShapeGroup" transform="translate(1 1)"/><path d="M0 77.89v-77.89h180.318v.061c0 .061-1.17.294-3.509.7-2.339.406-5.39 1.268-9.153 2.586-3.763 1.318-7.323 2.89-10.679 4.716s-6.509 3.854-9.458 6.085-5.594 4.665-7.933 7.302c-2.339 2.637-4.526 5.426-6.56 8.367-2.034 2.941-3.844 6.065-5.431 9.371-1.566 3.286-2.807 6.755-3.722 10.406-.915 3.651-1.444 7.809-1.587 12.475l-.244 6.998 5.034-.061c3.356-.061 6.865-.548 10.526-1.46 3.661-.913 6.997-2.15 10.007-3.712 2.99-1.582 5.98-3.57 8.97-5.963 3.01-2.373 5.756-4.949 8.238-7.728 2.502-2.799 4.872-5.974 7.109-9.523 2.237-3.55 4.068-6.998 5.492-10.345 1.424-3.347 2.543-6.694 3.356-10.041.814-3.347 1.322-6.998 1.526-10.953.203-3.955.275-6.491.214-7.606l-.061-1.673h62.546v219.98l-.305-.061-.305-.091-.305-.152-.305-.152-.458-.152c-.305-.101-2.085-1.116-5.339-3.043-3.254-1.927-6.122-3.935-8.604-6.024-2.502-2.069-4.922-4.32-7.262-6.755-2.339-2.434-4.577-5.274-6.712-8.519-2.136-3.245-3.966-6.694-5.492-10.345-1.526-3.651-2.695-7.404-3.509-11.258-.814-3.854-1.22-8.824-1.22-14.909 0-6.085.356-10.852 1.068-14.3.712-3.448 1.729-6.846 3.051-10.193 1.322-3.347 3.051-6.694 5.187-10.041 2.136-3.347 4.577-6.44 7.323-9.28 2.746-2.84 5.919-5.598 9.519-8.276l5.431-4.047.061-.091.092-.061v-.608l-.092-.061-.427-.609c-.264-.365-1.515-1.866-3.753-4.503-2.237-2.637-4.729-5.122-7.475-7.454-2.746-2.333-5.716-4.432-8.909-6.298-3.214-1.886-6.651-3.54-10.313-4.959-3.661-1.42-8.034-2.637-13.12-3.651-5.085-1.014-9.916-1.521-14.493-1.521s-8.899.406-12.967 1.217c-4.068.811-11.34 2.992-21.815 6.542-10.475 3.55-16.628 5.375-18.459 5.477-1.831.101-3.407 0-4.729-.304s-5.695-1.775-13.12-4.412c-7.424-2.637-13.577-4.564-18.459-5.781-4.882-1.217-9.662-1.826-14.34-1.826-4.678 0-9.001.406-12.967 1.217-3.966.811-7.933 2.028-11.899 3.651-3.966 1.623-7.882 3.651-11.747 6.085s-7.068 4.817-9.611 7.15c-2.543 2.333-4.953 4.848-7.231 7.546-2.298 2.677-4.566 5.842-6.804 9.493-2.237 3.651-4.221 7.454-5.95 11.41-1.729 3.955-3.204 8.266-4.424 12.931-1.22 4.665-2.136 9.635-2.746 14.909l-.915 7.911h-.153v-77.89z" id="Shape" stroke="#fff" fill="#fff" sketch:type="MSShapeGroup" transform="translate(1 1)"/><path d="M0 234.584v-65.112l1.281 10.649c.875 7.099 2.126 13.996 3.753 20.69 1.627 6.694 3.61 13.286 5.95 19.777 2.339 6.491 4.902 12.657 7.689 18.499 2.807 5.822 5.716 11.136 8.726 15.943 2.99 4.828 6.59 10.061 10.801 15.7 4.231 5.619 7.617 9.797 10.16 12.535 2.543 2.738 5.289 5.274 8.238 7.606 2.949 2.333 5.695 4.108 8.238 5.325 2.543 1.217 4.322 1.978 5.339 2.282 1.017.304 1.729.507 2.136.609l.61.152 1.068.152 1.068.152v.152h-75.056v-65.112z" id="Shape" stroke="#fff" fill="#fff" sketch:type="MSShapeGroup" transform="translate(1 1)"/><path d="M180.318.061v-.061h2.136l.061 1.673c.061 1.116-.01 3.651-.214 7.606-.203 3.955-.712 7.606-1.526 10.953-.814 3.347-1.932 6.694-3.356 10.041-1.424 3.347-3.254 6.795-5.492 10.345-2.237 3.55-4.607 6.724-7.109 9.523-2.482 2.779-5.227 5.355-8.238 7.728-2.99 2.394-5.98 4.381-8.97 5.963-3.01 1.562-6.346 2.799-10.007 3.712-3.661.913-7.17 1.4-10.526 1.46l-5.034.061.244-6.998c.142-4.665.671-8.824 1.587-12.475.915-3.651 2.156-7.12 3.722-10.406 1.587-3.306 3.397-6.43 5.431-9.371 2.034-2.941 4.221-5.73 6.56-8.367 2.339-2.637 4.983-5.071 7.933-7.302 2.949-2.231 6.102-4.26 9.458-6.085 3.356-1.826 6.916-3.398 10.679-4.716s6.814-2.181 9.153-2.586c2.339-.406 3.509-.639 3.509-.7z" id="Shape" stroke="#221E20" fill="#221E20" sketch:type="MSShapeGroup" transform="translate(1 1)"/><path d="M240.973 230.629l4.027-10.041v79.108h-64.988v-.304l.305-.061.305-.091 1.22-.152c.814-.101 2.593-.558 5.339-1.369 2.746-.811 5.492-2.028 8.238-3.651 2.746-1.623 5.421-3.621 8.024-5.994 2.583-2.394 5.431-5.436 8.543-9.128 3.092-3.712 6.57-8.357 10.435-13.935 3.865-5.578 7.241-11.034 10.13-16.369 2.909-5.314 5.716-11.318 8.421-18.012z" stroke="#fff" fill="#fff" sketch:type="MSShapeGroup" transform="translate(1 1)"/><path d="M177.572 299.331l2.441.061v.304h-98.854v-.152l1.22-.152 1.22-.152 5.644-1.521c3.763-1.014 8.645-2.586 14.645-4.716 6-2.13 10.577-3.499 13.73-4.108 3.153-.609 6.712-.913 10.679-.913 3.966 0 7.831.406 11.594 1.217 3.763.811 8.95 2.383 15.56 4.716 6.611 2.333 11.543 3.803 14.798 4.412 3.254.609 5.695.943 7.323 1.004z" stroke="#FEFEFE" fill="#FEFEFE" sketch:type="MSShapeGroup" transform="translate(1 1)"/></g></svg>
